src/pos-icons/cloud-lock.svg

<svg height="24" viewBox="0 0 24 24" width="24" xmlns="http://www.w3.org/2000/svg"><path d="m22 17c.5 0 1 .5 1 1v4c0 .5-.5 1-1 1h-5c-.5 0-1-.5-1-1v-4c0-.5.5-1 1-1v-1.5c0-1.4 1.1-2.5 2.5-2.5s2.5 1.1 2.5 2.5zm-1 0v-1.5c0-.8-.7-1.5-1.5-1.5s-1.5.7-1.5 1.5v1.5zm-1.64-7.97c2.59.19 4.64 2.33 4.64 4.97l-.06.77c-.35-2.14-2.2-3.77-4.44-3.77-2.5 0-4.5 2-4.5 4.5v.26c-.61.55-1 1.35-1 2.24v1h-8c-3.31 0-6-2.69-6-6 0-3.1 2.34-5.64 5.35-5.96 1.25-2.4 3.76-4.04 6.65-4.04 3.64 0 6.67 2.59 7.36 6.03z"/></svg>

<?xml version="1.0" encoding="UTF-8"?><!DOCTYPE svg PUBLIC "-//W3C//DTD SVG 1.1//EN" "http://www.w3.org/Graphics/SVG/1.1/DTD/svg11.dtd"><svg xmlns="http://www.w3.org/2000/svg" xmlns:xlink="http://www.w3.org/1999/xlink" version="1.1" id="mdi-cloud-lock" width="24" height="24" viewBox="0 0 24 24"><path d="M22 17C22.5 17 23 17.5 23 18V22C23 22.5 22.5 23 22 23H17C16.5 23 16 22.5 16 22V18C16 17.5 16.5 17 17 17V15.5C17 14.1 18.1 13 19.5 13C20.9 13 22 14.1 22 15.5V17M21 17V15.5C21 14.7 20.3 14 19.5 14C18.7 14 18 14.7 18 15.5V17H21M19.36 9.03C21.95 9.22 24 11.36 24 14L23.94 14.77C23.59 12.63 21.74 11 19.5 11C17 11 15 13 15 15.5L15 15.76C14.39 16.31 14 17.11 14 18V19H6C2.69 19 0 16.31 0 13C0 9.9 2.34 7.36 5.35 7.04C6.6 4.64 9.11 3 12 3C15.64 3 18.67 5.59 19.36 9.03Z" /></svg>
